X:111
T:Silent Night, Holy Night
C:F. Gruber
L:1/4
M:6/8
Q:1/4=55
P:BABABAB
V:S clef=treble
%%MIDI program 1 19
V:A
%%MIDI program 2 60
V:T clef=treble_8 
%%MIDI program 3 57
%%score (S A) T
K:Gmaj
P:A
[V:S]
(D3/4E/4) D/2 B,3/2 | (D3/4E/4) D/2 B,3/2 | A (A3/8F/8) F3/2 | G (G3/8D/8) D3/2 |
E E/2 (G3/4F/4) E/2 | D3/4E/4 D/2 B,3/2 | E E/2 G3/4 F/4 E/2 | D3/4E/4 D/2 B,3/2 |
%
[V:A]
(B,3/4C/4) B,/2 G,3/2 | (B,3/4C/4) B,/2 G,3/2 | C C/2 C3/2 | B, B,/2 B,3/2 |
C C/2 (E3/4D/4) C/2 | B,3/4C/4 B,/2 G,3/2 | G, C/2 E3/4 D/4 C/2 |B,3/4C/4 B,/2 G,3/2 |
w:1~Si_lent night! Ho_ly night! All is calm, all is bright. Round yon Vir_gin Mo-ther and Child. Ho-ly In-fant, so ten-der and mild.
w:2~Si_lent night, Ho_ly night! Shep-herds quake at the sight Glo-ries stream_ from hea-ven a-far Heaven-ly hosts_ sing 'Al-le-lu-ia! 
w:3~Si_lent night, Ho_ly night! Son of God, love's pure light Ra-diant beams_ from Thy ho-ly face With the dawn of re-deem_ing grace 
[V:T]
G, G,/2 D,3/2 | G, G,/2 D,3/2 | F, F,/2 D,3/2 | D, D,/2 G,3/2 |
G, G,/2 E, G,/2 | G, G,/2 D,3/2 | G, G,/2 E,3/4 F,/4 G,/2 |G, G,/2 D,3/2 |
P:B
[V:S]
A A/2 c3/4 A/4 F/2 | (G3/2 B3/2) | (G/2D/2) B,/2 D3/4 C/4 A,/2 | G,3/2-G,3/2|]
%
[V:A]
C C/2 A,3/4 C/4 D/2 | (B,3/2 D3/2) | B, G,/2 F,3/4 A,/4 C/2 | B,3/2-B,3/2|]
w: Sleep in heav-en-ly peace,_ Sleep in heav-en-ly peace._
w: Christ the Sa-vior is born_ Christ the Sa-vior is born_
w: Je-sus Lord, at Thy birth_ Je-sus Lord, at Thy birth_
[V:T]
F, F,/2 F,3/4 F,/4 D,/2 | (D,3/2 G,3/2) | G, D,/2 D,3/4 D,/4 C,/2 | B,,3/2-B,,3/2|]

